icons/first-aid-kit-fill.svg

<svg viewBox="0 0 24 24" fill="currentColor" xmlns="http://www.w3.org/2000/svg"><path d="M16 1C16.5523 1 17 1.44772 17 2V5H21C21.5523 5 22 5.44772 22 6V20C22 20.5523 21.5523 21 21 21H3C2.44772 21 2 20.5523 2 20V6C2 5.44772 2.44772 5 3 5H7V2C7 1.44772 7.44772 1 8 1H16ZM13 9H11V12H8V14H10.999L11 17H13L12.999 14H16V12H13V9ZM15 3H9V5H15V3Z"/></svg>

<svg xmlns="http://www.w3.org/2000/svg" viewBox="0 0 24 24">
    <g>
        <path fill="none" d="M0 0H24V24H0z"/>
        <path d="M16 1c.552 0 1 .448 1 1v3h4c.552 0 1 .448 1 1v14c0 .552-.448 1-1 1H3c-.552 0-1-.448-1-1V6c0-.552.448-1 1-1h4V2c0-.552.448-1 1-1h8zm-3 8h-2v3H8v2h2.999L11 17h2l-.001-3H16v-2h-3V9zm2-6H9v2h6V3z"/>
    </g>
</svg>
